icons/azure-pipelines.svg

<svg xmlns="http://www.w3.org/2000/svg" viewBox="0 0 32 32">
  <g>
    <path d="M3.97942,22.01048H5.78275V26.218H9.99028v1.80333H3.97942Z" style="fill: #64b5f6"/>
    <path d="M3.97942,10.99121V16.5016l3.50552,3.60968L8.98784,18.505l4.50795,4.508-1.50215,1.50214,3.50627,3.50552H21.0103a1.00141,1.00141,0,0,0,1.00093-1.00169V19.00543l-9.0159-9.01591H4.98186A1.00173,1.00173,0,0,0,3.97942,10.99121Z" style="fill: #1565c0"/>
    <path d="M8.31678,18.43929a1.00243,1.00243,0,0,1-.12455-1.26437l8.215-12.30478a2.0026,2.0026,0,0,1,1.66595-.89147h8.9457a1.00157,1.00157,0,0,1,1.00169,1.00168v8.94571a2.00351,2.00351,0,0,1-.89072,1.6667l-12.30478,8.215a1.00245,1.00245,0,0,1-1.26513-.1253Z" style="fill: #1e88e5"/>
    <path d="M8.97576,21.54247l7.64812-7.64812,1.481,1.481-7.64812,7.64812Z" style="fill: #64b5f6"/>
    <path d="M11.67963,21.80139l-1.481-1.481,6.426-6.426,1.481,1.481Z" style="fill: #42a5f5"/>
    <path d="M22.01123,12.99457a3.0058,3.0058,0,0,0,.09531-6.01085q-.04765-.00077-.09531,0a3.0058,3.0058,0,0,0,0,6.01085Z" style="fill: #90caf9"/>
  </g>
</svg>

<svg xmlns="http://www.w3.org/2000/svg" viewBox="0 0 32 32"><path fill="#64b5f6" d="M3.98 22.01h1.803v4.208H9.99v1.803H3.98Z"/><path fill="#1565c0" d="M3.98 10.991v5.51l3.505 3.61 1.503-1.606 4.508 4.508-1.502 1.502 3.506 3.506h5.51a1.001 1.001 0 0 0 1.001-1.002v-8.014L12.995 9.99H4.982a1.002 1.002 0 0 0-1.003 1.001Z"/><path fill="#1e88e5" d="M8.317 18.44a1.002 1.002 0 0 1-.125-1.265L16.407 4.87a2.003 2.003 0 0 1 1.666-.891h8.946A1.002 1.002 0 0 1 28.02 4.98v8.946a2.004 2.004 0 0 1-.891 1.667l-12.305 8.215a1.002 1.002 0 0 1-1.265-.126Z"/><path fill="#64b5f6" d="m8.976 21.542 7.648-7.648 1.48 1.481-7.647 7.648Z"/><path fill="#42a5f5" d="m11.68 21.801-1.481-1.48 6.426-6.427 1.48 1.481Z"/><path fill="#90caf9" d="M22.011 12.995a3.006 3.006 0 0 0 .096-6.011h-.096a3.006 3.006 0 0 0 0 6.01Z"/></svg>
